X: 24923
T: Maid At The Well, The
R: jig
M: 6/8
K: Amajor
|:AFE EFE|ABc d2f|ecA ABc|BAF FEF|
AFE EFE|ABc d2f|ecA ABc|1 BAG A2A:|2 BAG Ace||
aec Ace|aec d2f|ecA ABc|BAF FEF|
aec Ace|aec d2f|ecA ABc|BAG Ace|
aec Ace|aec d2f|ecA ABc|BAF FEF|
AFE EFE|ABc d2f|ecA ABc|BAG A2A||

